X:1
T:Thomas Tallis, 1567
T:Matthew Parker, 1567 4444. 4444. 4444. 4444. 
T:Psalm 95 No copyright. Transcribed from The Whole Psalter Translated, 1567.
%%score [ 1 2 3 4 ]
L:1/8
M:20/2
K:C
V:1 treble nm="Meane" snm="M."
V:2 treble nm="Counter\nTenor" snm="C."
V:3 treble-8 nm="Tenor" snm="T."
V:4 bass nm="Bass" snm="B."
V:1
 c2 c2 d2 e4 g2 f4 f2 e4 c2 f2 f2 e2 f2 d2 d2 ^c4 z4 || %1
w: 1.~O come in one To praise the Lord, And Him re- count Our stay and health:|
 c2 c2 d2 e4 g2 f4 f2 e4 c2 f2 f2 e2 f2 d2 d2 ^c4 z4 || %2
w: All hear- ty joys Let us re- cord: To this strong rock, Our Lord of health.|
 c2 c2 e2 g4 g2 (a3 b) c'a b4 b2 b2 b2 b4 a2 a2 ^g4 a4 z4 || %3
w: 1.~His face with praise Let us * pre- * vent: His facts in sight Let us de- nounce:|
 e2 e2 e2 f4 d2 (e3 f) g2 f4 f2 f2 f2 e4 z4 f2 d2 d2 ^c16 |] %4
w: Join me, I say, In glad * as- sent: Our psalms and hymns Let us pro- nounce.|
V:2
 A2 A2 A2 c4 c2 c4 c2 c4 G2 c2 c2 c2 c2 A2 A2 A4 z4 || %1
w: 2.~For why? This Lord Is God of might, For help at need when we may call:|
 A2 A2 A2 c4 c2 c4 c2 c4 G2 c2 c2 c2 c2 A2 A2 A4 z4 || %2
w: A puis- sant King In His bright light, He pass'th all gods By rul- ing all.|
 A2 G2 c2 c4 G2 c4 A2 d4 d2 d2 d2 d2 z eed e4 e2 e4 z4 || %3
w: 2.~All coasts of earth By Him do lie: His cells and grounds, Though * * they be deep:|
 c2 c2 c2 F2 z GAB c4 d2 d4 d2 d2 c2 c4 z4 c2 A2 A2 A16 |] %4
w: As fast by Him Stand * * moun- tains high, And stoop to Him, Though they be steep.|
V:3
 e2 e2 f2 g4 g2 a4 a2 g4 e2 a2 a2 g2 a2 f2 f2 e4 z4 || %1
w: 3.~The sea is His: The work of hands: Her rise and fall, With all her road:|
 e2 e2 f2 g4 g2 a4 a2 g4 e2 a2 a2 g2 a2 f2 f2 e4 z4 || %2
w: The land from her By po- wer stands, Whom God so stayed For His a- bode.|
 e2 e2 e2 e4 d2 c4 c2 g4 g2 g2 g2 g4 a2 b4 b2 a4 z4 || %3
w: 3.~O then come we, Let us a- dore, And pros- trate lie On both our knees:|
 a2 a2 a2 a4 f2 g4 b2 a4 a2 a2 a2 g4 z4 a2 f2 f2 e16 |] %4
w: He made us all, both rich and poor, Both king and slave, In their de- grees.|
V:4
 A,,2 A,,2 D,2 C,2 z2 E,2 F,4 F,2 C,4 C,2 F,,2 A,,2 C,2 A,,2 D,2 D,2 A,,4 z4 || %1
w: 4.~For God He is Our Lord and stay: His peo- ple we In pas- ture near:|
 A,,2 A,,2 D,2 (C,3 D,) E,2 F,4 F,2 C,4 C,2 F,,2 A,,2 C,2 A,,2 D,2 D,2 A,,4 z4 || %2
w: His flock of hand, * Who leads our way: His voice to- day If well we hear.|
"^__________________________________________\nEdited by B. C. Johnston, 2015.  \n   1. All notes half value of original. \nMeane\n moved up one octave. Bar lines in original shown dashed here.\n   2. \nTenor\n, m. 4: flats removed from initial A in 4-1, and from G in 4-2.\nArchaic Words.\n   1. \nPrevent\n. Then meant \nto go before\n, no negative connotation.\n   2. \nDenounce\n. Then meant \nto declare\n, no negative connotation.\n   3. O'er-whart. To whart is to plow cross-furrows, so by extension, whart here probably means to go against the grain or against the flow." A,,2 C,2 C,2 C,4 B,,2 A,,4 A,,2 G,,4 G,,2 G,,2 G,,2 G,4 F,2 E,4 E,2 A,,4 z4 || %3
w: 4.~Be- ware, say I, Ye hard no hearts A- gainst His grace To you so meant:|
 A,,2 A,,2 A,,2 D,4 D,2 C,4 G,,2 D,4 D,2 D,2 F,2 C,4 z4 A,,2 D,2 D,2 A,,16 |] %4
w: As de- sert saw, Once strife o'er- whart, Like temp- ting day Of mad in- tent.|

